src/img/icons/brand-03.svg

<svg width="64" height="65" viewBox="0 0 64 65" fill="none" xmlns="http://www.w3.org/2000/svg">
<path fill-rule="evenodd" clip-rule="evenodd" d="M32 48.2939C40.8366 48.2939 48 41.1305 48 32.2939C48 23.4574 40.8366 16.2939 32 16.2939C23.1634 16.2939 16 23.4574 16 32.2939C16 41.1305 23.1634 48.2939 32 48.2939ZM32 49.2939C41.3888 49.2939 49 41.6828 49 32.2939C49 22.9051 41.3888 15.2939 32 15.2939C22.6112 15.2939 15 22.9051 15 32.2939C15 41.6828 22.6112 49.2939 32 49.2939Z" fill="#1B1B1B"/>
<path fill-rule="evenodd" clip-rule="evenodd" d="M63 32.2939C63 49.4148 49.1208 63.2939 32 63.2939C14.8792 63.2939 1 49.4148 1 32.2939C1 15.1731 14.8792 1.29394 32 1.29394C49.1208 1.29394 63 15.1731 63 32.2939ZM64 32.2939C64 49.9671 49.6731 64.2939 32 64.2939C14.3269 64.2939 2.17128e-06 49.9671 1.39876e-06 32.2939C6.26248e-07 14.6208 14.3269 0.293945 32 0.293944C49.6731 0.293943 64 14.6208 64 32.2939Z" fill="#1B1B1B"/>
<path fill-rule="evenodd" clip-rule="evenodd" d="M10.0246 53.2939C10.5709 42.1976 20.161 33.2939 32 33.2939C43.839 33.2939 53.4291 42.1976 53.9754 53.294L10.0246 53.2939ZM9.02334 53.2939C9.5699 41.6078 19.6478 32.2939 32 32.2939C44.3522 32.2939 54.4301 41.6078 54.9767 53.294C54.9922 53.6254 55 53.9588 55 54.294L9 54.2939C9 53.9588 9.00784 53.6254 9.02334 53.2939Z" fill="#1B1B1B"/>
<path fill-rule="evenodd" clip-rule="evenodd" d="M10.0246 11.2939C10.5709 22.3903 20.161 31.2939 32 31.2939C43.839 31.2939 53.4291 22.3903 53.9754 11.2939L10.0246 11.2939ZM9.02334 11.2939C9.5699 22.9801 19.6478 32.2939 32 32.2939C44.3522 32.2939 54.4301 22.9801 54.9767 11.2939C54.9922 10.9625 55 10.6291 55 10.2939L9 10.2939C9 10.6291 9.00784 10.9625 9.02334 11.2939Z" fill="#1B1B1B"/>
</svg>

<svg xmlns="http://www.w3.org/2000/svg" fill="none" viewBox="0 0 64 65"><path fill="#1B1B1B" fill-rule="evenodd" d="M32 48.294c8.837 0 16-7.163 16-16s-7.163-16-16-16-16 7.163-16 16 7.163 16 16 16zm0 1c9.389 0 17-7.611 17-17s-7.611-17-17-17-17 7.611-17 17 7.611 17 17 17z" clip-rule="evenodd"/><path fill="#1B1B1B" fill-rule="evenodd" d="M63 32.294c0 17.12-13.88 31-31 31-17.12 0-31-13.88-31-31 0-17.12 13.88-31 31-31 17.12 0 31 13.88 31 31zm1 0c0 17.673-14.327 32-32 32-17.673 0-32-14.327-32-32 0-17.673 14.327-32 32-32 17.673 0 32 14.327 32 32z" clip-rule="evenodd"/><path fill="#1B1B1B" fill-rule="evenodd" d="M10.025 53.294c.546-11.096 10.136-20 21.975-20 11.839 0 21.43 8.904 21.975 20h-43.95zm-1.002 0c.547-11.686 10.625-21 22.977-21s22.43 9.314 22.977 21c.015.331.023.665.023 1H9c0-.335.008-.669.023-1zM10.025 11.294c.546 11.096 10.136 20 21.975 20 11.839 0 21.43-8.904 21.975-20h-43.95zm-1.002 0c.547 11.686 10.625 21 22.977 21s22.43-9.314 22.977-21c.015-.332.023-.665.023-1H9c0 .335.008.668.023 1z" clip-rule="evenodd"/></svg>
